X:1
T:ÐÐµÑÐµÐ½ÐºÐ° Ð¾ Ð¼ÐµÐ´Ð²ÐµÐ´ÑÑ
C:1967 - Ð. ÐÐ°ÑÐµÐ¿Ð¸Ð½
Z:www.realbook.site
L:1/4
M:4/4
I:linebreak $
K:Dmin
V:1 treble nm=" " snm=" "
V:1
"Dm" D D/F/ A D |"E7" E E z2 |"A7" ^C C/E/ A C |"Dm" D z z2 |$"Dm" D D/F/ A D |"Gm6" E E z2 | %6
"C7" G F E G |"F6" A2 z2 |$"Gm" G G/B/ d B |"C7" G G z2 |"F6" F F/A/ c A |"Bb" F z z2 |$ %12
"Dm" D D/F/ A D |"E7" E E z2 |"A7" ^C E A C |"Dm" D z z2 |:$"Cm6" A4- |"D7" A A _e d |"Gm" c3 B | %19
 G4 |$"E7" E4- |"A7" E E B A |"Dm" G3 F | D4 :| %24

